X:1
T:Partition sans titre
C:Compositeur / Arrangeur
L:1/8
M:4/4
I:linebreak $
K:D
V:1 treble nm="Violon" snm="Vln."
V:1
"D" DFAF D2 A,D | FDAF"A7" GFEG |"D" FAdA FAdf |"A" edcB"D" AGFE |"D" DFAF DFA,D | FDAF"A7" GFEG | %6
"D" FAdA FAdf |1"A7" egfe"D" d2 FE :|2"A7" egfe"D" d2 cd |:"A" ecAc EAce |"D" fdAd FAdf | %11
"A7" gfeg"D" fedf |"A" edcB A2 cd | ecAc EAce |"D" fdAd FAdf |"A7" gfeg"D" fedf |1 %16
"A" ecAc"D" d2 cd :|2"A" eaaf"D" d2 FE |] %18
